;FLAVOR:Marlin
;TIME:3316
;Filament used: 2.31359m
;Layer height: 0.2
;MINX:78.906
;MINY:88.099
;MINZ:0.24
;MAXX:156.079
;MAXY:146.905
;MAXZ:31.09
;TARGET_MACHINE.NAME:Creality Ender-3
;Generated with Cura_SteamEngine 5.6.0
M140 S50
M105
M190 S50
M104 S195
M105
M109 S195
M82 ;absolute extrusion mode
; Ender 3 Custom Start G-code
G92 E0 ; Reset Extruder
G28 ; Home all axes
G1 Z2.0 F3000 ; Move Z Axis up little to prevent scratching of Heat Bed
G1 X0.1 Y20 Z0.3 F5000.0 ; Move to start position
G1 X0.1 Y200.0 Z0.3 F1500.0 E15 ; Draw the first line
G1 X0.4 Y200.0 Z0.3 F5000.0 ; Move to side a little
G1 X0.4 Y20 Z0.3 F1500.0 E30 ; Draw the second line
G92 E0 ; Reset Extruder
G1 Z2.0 F3000 ; Move Z Axis up little to prevent scratching of Heat Bed
G1 X5 Y20 Z0.3 F5000.0 ; Move over to prevent blob squish
G92 E0
G92 E0
G1 F2700 E-5
;LAYER_COUNT:150
;LAYER:-6
M107
G0 F9000 X85.107 Y93.64 Z0.24
;TYPE:SUPPORT-INTERFACE
G1 F2700 E0
G1 F1125 X85.91 Y93.011 E0.08142
G1 X86.744 Y92.436 E0.16229
G1 X87.311 Y92.091 E0.21527
G1 X89.042 Y91.094 E0.37472
G1 X90.022 Y90.582 E0.46298
G1 X90.832 Y90.226 E0.53361
G1 X91.173 Y90.089 E0.56294
G1 X91.189 Y90.099 E0.56445
G1 X91.733 Y89.895 E0.61083
G1 X92.017 Y89.807 E0.63456
G1 X93.136 Y89.507 E0.72704
G1 X94.089 Y89.333 E0.80437
G1 X95.012 Y89.216 E0.87864
G1 X96.024 Y89.167 E0.95951
G1 X97.177 Y89.187 E1.05156
G1 X98.311 Y89.303 E1.14256
G1 X99.372 Y89.491 E1.22857
G1 X100.416 Y89.756 E1.31455
G1 X101.262 Y90.033 E1.38561
G1 X102.002 Y90.323 E1.44905
G1 X102.006 Y90.338 E1.45029
G1 X102.404 Y90.503 E1.48468
G1 X103.366 Y90.989 E1.57072
G1 X104.205 Y91.487 E1.6486
G1 X105.139 Y92.146 E1.73985
G1 X105.839 Y92.713 E1.81175
G1 X106.605 Y93.424 E1.89518
G1 X107.413 Y94.293 E1.9899
G1 X108.051 Y95.108 E2.07252
G1 X108.7 Y96.058 E2.16436
G1 X109.953 Y98.21 E2.36314
G1 X110.33 Y98.779 E2.41762
G1 X110.775 Y99.292 E2.47183
G1 X111.284 Y99.746 E2.52628
G1 X111.854 Y100.139 E2.58154
G1 X112.455 Y100.448 E2.63549
G1 X113.111 Y100.686 E2.69119
G1 X114.046 Y100.87 E2.76726
G1 X114.52 Y100.928 E2.80538
G1 X115.007 Y101.005 E2.84474
G1 X117.324 Y101.47 E3.03338
G1 X118.142 Y101.664 E3.10048
G1 X118.941 Y101.903 E3.16706
G1 X120.788 Y102.531 E3.32278
G1 X121.795 Y102.911 E3.4087
G1 X122.691 Y103.318 E3.48725
G1 X124.416 Y104.17 E3.64083
G1 X125.342 Y104.671 E3.72487
G1 X126.08 Y105.136 E3.7945
G1 X127.611 Y106.157 E3.9414
G1 X128.49 Y106.79 E4.02786
G1 X129.222 Y107.393 E4.10357
G1 X130.682 Y108.673 E4.25856
G1 X131.375 Y109.326 E4.33456
G1 X132.034 Y110.028 E4.41142
G1 X133.284 Y111.452 E4.56267
G1 X134.491 Y112.938 E4.71549
G1 X134.97 Y113.389 E4.76801
G1 X135.519 Y113.79 E4.82228
G1 X136.107 Y114.116 E4.87595
G1 X136.734 Y114.368 E4.92989
G1 X137.388 Y114.538 E4.98383
G1 X138.072 Y114.629 E5.03891
G1 X138.418 Y114.64 E5.06654
G1 X140.44 Y114.641 E5.22795
G1 X141.578 Y114.689 E5.31887
G1 X142.641 Y114.811 E5.40428
G1 X143.669 Y115.008 E5.48783
G1 X144.737 Y115.294 E5.57609
G1 X145.736 Y115.642 E5.66053
G1 X146.626 Y116.02 E5.73772
G1 X147.638 Y116.546 E5.82876
G1 X148.404 Y117.012 E5.90033
G1 X149.349 Y117.68 E5.99271
G1 X150.228 Y118.417 E6.08427
G1 X150.874 Y119.039 E6.15586
G1 X151.587 Y119.824 E6.24051
G1 X152.25 Y120.674 E6.32656
G1 X152.85 Y121.565 E6.4123
G1 X153.449 Y122.632 E6.50998
G1 X153.831 Y123.444 E6.58161
G1 X154.214 Y124.432 E6.6662
G1 X154.554 Y125.537 E6.75848
G1 X154.8 Y126.655 E6.84986
G1 X154.948 Y127.716 E6.93538
G1 X155.025 Y128.788 E7.02117
G1 X155.033 Y131.226 E7.21578
G1 X154.996 Y132.225 E7.29558
G1 X154.862 Y133.45 E7.39395
G1 X154.665 Y134.476 E7.47734
G1 X154.383 Y135.533 E7.56467
G1 X154.031 Y136.544 E7.65012
G1 X153.656 Y137.428 E7.72678
G1 X153.127 Y138.445 E7.81828
G1 X152.661 Y139.211 E7.88985
G1 X151.993 Y140.156 E7.98223
G1 X151.256 Y141.035 E8.0738
G1 X150.634 Y141.681 E8.14538
G1 X149.848 Y142.393 E8.23004
G1 X148.998 Y143.058 E8.31619
G1 X148.108 Y143.657 E8.40182
G1 X147.041 Y144.256 E8.4995
G1 X146.224 Y144.64 E8.57156
G1 X145.229 Y145.025 E8.65672
G1 X144.223 Y145.335 E8.74075
G1 X143.153 Y145.581 E8.82839
G1 X142.129 Y145.737 E8.91107
G1 X140.873 Y145.832 E9.01162
G1 X140.369 Y145.84 E9.05186
G1 X110.249 Y145.839 E11.45617
G1 X109.111 Y145.791 E11.54709
G1 X108.047 Y145.669 E11.63258
G1 X107.019 Y145.472 E11.71613
G1 X106.159 Y145.247 E11.78709
G1 X106.148 Y145.256 E11.78822
G1 X104.733 Y144.751 E11.90815
G1 X104.347 Y144.595 E11.94139
G1 X103.403 Y144.165 E12.02419
G1 X102.457 Y143.653 E12.11005
G1 X101.589 Y143.102 E12.19212
G1 X101.347 Y142.934 E12.21564
G1 X100.641 Y142.391 E12.28673
G1 X99.447 Y141.304 E12.41563
G1 X99.219 Y141.073 E12.44153
G1 X98.473 Y140.252 E12.53008
G1 X97.805 Y139.403 E12.61632
G1 X97.295 Y138.654 E12.68865
G1 X96.951 Y138.088 E12.74152
G1 X81.896 Y112.007 E15.14537
G1 X81.383 Y111.025 E15.23381
G1 X81.029 Y110.218 E15.30416
G1 X80.896 Y109.887 E15.33263
G1 X80.906 Y109.871 E15.33414
G1 X80.702 Y109.326 E15.38059
G1 X80.614 Y109.042 E15.40432
G1 X80.314 Y107.923 E15.4968
G1 X80.138 Y106.959 E15.57502
G1 X80.031 Y106.093 E15.64468
G1 X80.009 Y105.833 E15.66551
G1 X79.974 Y105.036 E15.72919
G1 X79.994 Y103.882 E15.82132
G1 X80.11 Y102.748 E15.91231
G1 X80.298 Y101.687 E15.99833
G1 X80.559 Y100.655 E16.0833
G1 X80.84 Y99.797 E16.15537
G1 X81.13 Y99.057 E16.21881
G1 X81.145 Y99.053 E16.22005
G1 X81.31 Y98.655 E16.25444
G1 X81.794 Y97.698 E16.34005
G1 X82.292 Y96.856 E16.41814
G1 X82.952 Y95.921 E16.50949
G1 X83.628 Y95.095 E16.59469
G1 X84.373 Y94.315 E16.68079
G1 X85.107 Y93.64 E16.76039
G0 F9000 X85.12 Y94.171
G1 F1125 X136.387 Y145.438 E22.54786
G1 F2700 E17.54786
G0 F9000 X134.124 Y145.438
G1 F2700 E22.54786
G1 F1125 X83.985 Y95.298 E28.20804
G1 F2700 E23.20804
G0 F9000 X82.986 Y96.563
G1 F2700 E28.20804
G1 F1125 X131.861 Y145.438 E33.72547
G1 F2700 E28.72547
G0 F9000 X129.599 Y145.438
G1 F2700 E33.72547
G1 F1125 X82.112 Y97.951 E39.08621
G1 F2700 E34.08621
G0 F9000 X81.389 Y99.491
G1 F2700 E39.08621
G1 F1125 X127.336 Y145.438 E44.27311
G1 F2700 E39.27311
G0 F9000 X125.073 Y145.438
G1 F2700 E44.27311
G1 F1125 X80.832 Y101.197 E49.26741
G1 F2700 E44.26741
G0 F9000 X80.475 Y103.102
G1 F2700 E49.26741
G1 F1125 X122.811 Y145.438 E54.04667
G1 F2700 E49.04667
G0 F9000 X120.548 Y145.438
G1 F2700 E54.04667
G1 F1125 X80.384 Y105.274 E58.58072
G1 F2700 E53.58072
G0 F9000 X80.713 Y107.866
G1 F2700 E58.58072
G1 F1125 X118.285 Y145.438 E62.82218
G1 F2700 E57.82218
G0 F9000 X116.022 Y145.438
G1 F2700 E62.82218
G1 F1125 X82.08 Y111.495 E66.6539
G1 F2700 E61.6539
G0 F9000 X81.03 Y112.639
G0 X83.86 Y117.54
G0 X85.129 Y116.807
G1 F2700 E66.6539
G1 F1125 X113.76 Y145.438 E69.88601
G1 F2700 E64.88601
G0 F9000 X111.497 Y145.438
G1 F2700 E69.88601
G1 F1125 X88.218 Y122.159 E72.51395
G1 F2700 E67.51395
G0 F9000 X86.949 Y122.892
G0 X90.04 Y128.244
G0 X91.308 Y127.512
G1 F2700 E72.51395
G1 F1125 X109.188 Y145.392 E74.5324
G1 F2700 E69.5324
G0 F9000 X106.439 Y144.905
G1 F2700 E74.5324
G1 F1125 X94.398 Y132.864 E75.89169
G1 F2700 E70.89169
G0 F9000 X93.129 Y133.597
G0 X96.031 Y138.624
G0 X97.512 Y138.242
G1 F2700 E75.89169
G1 F1125 X102.435 Y143.164 E76.44738
G1 F2700 E71.44738
G0 F9000 X101.924 Y144.576
G0 X103.82 Y145.527
G0 X105.849 Y146.268
G0 X107.873 Y146.719
G0 X109.199 Y146.866
G0 X138.65 Y146.905
G0 X138.65 Y145.438
G1 F2700 E76.44738
G1 F1125 X86.382 Y93.171 E82.34779
G1 F2700 E77.34779
G0 F9000 X87.764 Y92.29
G1 F2700 E82.34779
G1 F1125 X140.901 Y145.427 E88.34636
G1 F2700 E83.34636
G0 F9000 X142.943 Y145.206
G1 F2700 E88.34636
G1 F1125 X89.201 Y91.464 E94.41322
G1 F2700 E89.41322
G0 F9000 X90.714 Y90.714
G1 F2700 E94.41322
G1 F1125 X144.752 Y144.752 E100.51349
G1 F2700 E95.51349
G0 F9000 X146.383 Y144.121
G1 F2700 E100.51349
G1 F1125 X92.385 Y90.122 E106.60931
G1 F2700 E101.60931
G0 F9000 X94.242 Y89.717
G1 F2700 E106.60931
G1 F1125 X147.861 Y143.336 E112.66229
G1 F2700 E107.66229
G0 F9000 X149.188 Y142.399
G1 F2700 E112.66229
G1 F1125 X96.36 Y89.572 E118.62591
G1 F2700 E113.62591
G0 F9000 X98.857 Y89.806
G1 F2700 E118.62591
G1 F1125 X150.398 Y141.347 E124.4443
G1 F2700 E119.4443
G0 F9000 X151.47 Y140.156
G1 F2700 E124.4443
G1 F1125 X111.953 Y100.639 E128.90533
G1 F2700 E123.90533
G0 F9000 X114.985 Y101.409
G1 F2700 E128.90533
G1 F1125 X152.417 Y138.841 E133.13097
G1 F2700 E128.13097
G0 F9000 X153.225 Y137.386
G1 F2700 E133.13097
G1 F1125 X117.844 Y102.005 E137.12509
G1 F2700 E132.12509
G0 F9000 X121.226 Y103.124
G1 F2700 E137.12509
G1 F1125 X153.875 Y135.773 E140.81079
G1 F2700 E135.81079
G0 F9000 X154.35 Y133.986
G1 F2700 E140.81079
G1 F1125 X125.795 Y105.431 E144.03432
G1 F2700 E139.03432
G0 F9000 X126.66 Y104.242
G0 X129.27 Y106.048
G0 X131.585 Y108.093
G0 X137.605 Y113.496
G0 X137.598 Y114.97
G1 F2700 E144.03432
G1 F1125 X154.604 Y131.977 E145.95416
G1 F2700 E140.95416
G0 F9000 X154.627 Y129.737
G1 F2700 E145.95416
G1 F1125 X139.93 Y115.04 E147.61329
G1 F2700 E142.61329
G0 F9000 X142.331 Y115.178
G1 F2700 E147.61329
G1 F1125 X154.49 Y127.337 E148.9859
G1 F2700 E143.9859
G0 F9000 X153.744 Y124.329
G1 F2700 E148.9859
G1 F1125 X145.345 Y115.929 E149.93411
G1 F2700 E144.93411
G0 F9000 X145.053 Y114.276
G0 X124.824 Y103.182
G0 X122.458 Y102.05
G0 X110.862 Y97.654
G0 X109.441 Y98.127
G1 F2700 E149.93411
G1 F1125 X102.141 Y90.827 E150.7582
G1 F2700 E145.7582
G0 F300 X102.141 Y90.827 Z0.54
G0 F9000 X102.664 Y89.452
G0 X100.715 Y88.733
G0 X99.421 Y88.412
G0 X97.355 Y88.135
G0 X95.992 Y88.102
G0 X93.941 Y88.278
G0 X92.604 Y88.542
G0 X90.618 Y89.164
G0 X89.385 Y89.707
G0 X86.163 Y91.543
G0 X84.484 Y92.777
G0 X83.488 Y93.691
G0 X82.708 Y94.583
G0 X81.987 Y95.433
G0 X82.855 Y96.749
;TIME_ELAPSED:124.311683
;LAYER:-5
;TYPE:SUPPORT
G1 F2700 E150.7582
G1 F1125 X86.563 Y93.041 E151.28143
G1 X86.152 Y93.321 E151.33106
G1 X85.286 Y94.016 E151.44185
G1 X84.516 Y94.731 E151.5467
G1 X83.828 Y95.472 E151.64759
G1 X83.258 Y96.176 E151.73798
G1 X82.674 Y97.007 E151.83932
G1 X82.063 Y98.035 E151.95865
G1 X81.677 Y98.811 E152.04513
G1 X81.296 Y99.723 E152.14375
G1 X89.946 Y91.072 E153.36443
G1 X90.207 Y90.936 E153.39379
G1 X91.138 Y90.533 E153.49502
G1 X92.13 Y90.188 E153.59981
G1 X92.287 Y90.146 E153.61603
G1 X80.697 Y101.736 E155.2515
G1 X80.504 Y102.802 E155.3596
G1 X80.444 Y103.403 E155.41987
G1 X94.114 Y89.733 E157.34885
G1 X94.993 Y89.623 E157.43724
G1 X95.676 Y89.585 E157.5055
G1 X80.369 Y104.892 E159.66548
G1 X80.44 Y106.236 E159.79977
G1 X97.095 Y89.58 E162.15004
G1 X98.378 Y89.711 E162.27873
G1 X80.634 Y107.455 E164.7826
G1 X80.726 Y107.923 E164.83019
G1 X80.907 Y108.596 E164.89973
G1 X99.555 Y89.948 E167.53116
G1 X100.298 Y90.137 E167.60766
G1 X100.662 Y90.256 E167.64587
G1 X81.25 Y109.668 E170.38511
G1 X81.334 Y109.907 E170.41039
G1 X81.665 Y110.667 E170.4931
G1 X101.693 Y90.639 E173.31927
G1 X102.086 Y90.798 E173.36157
G1 X102.666 Y91.081 E173.42597
G1 X82.13 Y111.616 E176.32375
G1 X82.648 Y112.512 E176.42702
G1 X103.576 Y91.585 E179.38011
G1 X104.05 Y91.866 E179.43509
G1 X104.436 Y92.138 E179.48221
G1 X83.166 Y113.409 E182.48371
G1 X83.683 Y114.305 E182.58693
G1 X105.245 Y92.744 E185.62949
G1 X105.585 Y93.022 E185.67331
G1 X105.998 Y93.405 E185.72951
G1 X84.202 Y115.201 E188.80516
G1 X84.719 Y116.098 E188.90847
G1 X106.702 Y94.115 E192.01051
G1 X107.041 Y94.478 E192.06007
G1 X107.357 Y94.874 E192.11062
G1 X85.237 Y116.995 E195.23206
G1 X85.755 Y117.891 E195.33533
G1 X107.964 Y95.682 E198.46926
G1 X108.285 Y96.153 E198.52613
G1 X108.521 Y96.539 E198.57127
G1 X86.272 Y118.788 E201.71085
G1 X86.79 Y119.684 E201.81412
G1 X109.042 Y97.432 E204.95412
G1 X109.559 Y98.329 E205.05742
G1 X87.307 Y120.581 E208.19742
G1 X87.825 Y121.478 E208.30077
G1 X110.137 Y99.166 E211.44924
G1 X110.485 Y99.569 E211.50237
G1 X110.835 Y99.882 E211.54922
G1 X88.343 Y122.374 E214.72308
G1 X88.86 Y123.271 E214.82639
G1 X111.65 Y100.481 E218.0423
G1 X112.285 Y100.812 E218.11375
G1 X112.613 Y100.932 E218.1486
G1 X89.378 Y124.167 E221.42731
G1 X89.895 Y125.064 E221.53062
G1 X113.742 Y101.218 E224.89562
G1 X113.996 Y101.269 E224.92147
G1 X114.424 Y101.317 E224.96444
G1 X114.965 Y101.409 E225.0192
G1 X90.413 Y125.961 E228.48375
G1 X90.931 Y126.857 E228.58702
G1 X116.15 Y101.638 E232.14569
G1 X117.328 Y101.874 E232.26557
G1 X91.448 Y127.754 E235.91752
G1 X91.966 Y128.651 E236.02087
G1 X118.446 Y102.171 E239.75748
G1 X118.859 Y102.299 E239.80063
G1 X119.511 Y102.519 E239.86929
G1 X92.483 Y129.547 E243.68323
G1 X93.001 Y130.444 E243.78659
G1 X120.568 Y102.877 E247.67659
G1 X121.594 Y103.265 E247.78604
G1 X93.519 Y131.34 E251.74772
G1 X94.036 Y132.237 E251.85103
G1 X122.57 Y103.703 E255.87748
G1 X123.516 Y104.171 E255.9828
G1 X94.554 Y133.134 E260.06972
G1 X95.071 Y134.03 E260.17294
G1 X124.455 Y104.646 E264.31934
G1 X125.37 Y105.146 E264.42338
G1 X95.589 Y134.927 E268.6258
G1 X96.107 Y135.823 E268.72907
G1 X126.221 Y105.709 E272.97848
G1 X127.068 Y106.276 E273.08018
G1 X96.624 Y136.72 E277.37616
G1 X97.142 Y137.617 E277.47951
G1 X127.902 Y106.857 E281.82008
G1 X128.24 Y107.101 E281.86168
G1 X128.696 Y107.477 E281.92065
G1 X97.674 Y138.499 E286.29819
G1 X98.246 Y139.341 E286.39976
G1 X129.457 Y108.13 E290.80396
G1 X130.21 Y108.791 E290.90394
G1 X98.888 Y140.113 E295.32381
G1 X99.564 Y140.851 E295.42367
G1 X130.954 Y109.462 E299.85307
G1 X131.638 Y110.191 E299.95282
G1 X100.293 Y141.537 E304.37601
G1 X101.035 Y142.209 E304.47589
G1 X132.302 Y110.942 E308.88801
G1 X132.962 Y111.696 E308.98799
G1 X101.863 Y142.795 E313.3764
G1 X102.718 Y143.354 E313.47832
G1 X133.599 Y112.473 E317.83597
G1 X134.164 Y113.215 E317.92902
G1 X134.238 Y113.248 E317.93711
G1 X103.652 Y143.834 E322.25312
G1 X104.618 Y144.282 E322.35937
G1 X134.996 Y113.905 E326.64597
G1 X135.297 Y114.127 E326.68329
G1 X135.871 Y114.443 E326.74866
G1 X105.659 Y144.656 E331.01197
G1 X106.173 Y144.838 E331.06638
G1 X106.744 Y144.985 E331.12521
G1 X136.902 Y114.827 E335.38083
G1 X137.329 Y114.938 E335.42486
G1 X138.114 Y115.03 E335.50372
G1 X107.897 Y145.247 E339.76767
G1 X109.164 Y145.393 E339.89492
G1 X139.517 Y115.04 E344.17806
G1 X140.419 Y115.041 E344.26806
G1 X140.912 Y115.06 E344.31729
G1 X110.534 Y145.438 E348.60395
G1 X111.948 Y145.438 E348.74504
G1 X142.221 Y115.165 E353.01689
G1 X142.591 Y115.208 E353.05406
G1 X143.437 Y115.363 E353.13988
G1 X113.362 Y145.438 E357.38378
G1 X114.776 Y145.438 E357.52487
G1 X144.556 Y115.658 E361.72715
G1 X145.615 Y116.013 E361.8386
G1 X116.191 Y145.438 E365.99072
G1 X117.605 Y145.438 E366.1318
G1 X146.592 Y116.451 E370.22218
G1 X147.527 Y116.93 E370.32701
G1 X119.019 Y145.438 E374.34979
G1 X120.433 Y145.439 E374.49088
G1 X148.387 Y117.484 E378.43557
G1 X149.205 Y118.08 E378.53655
G1 X121.847 Y145.439 E382.39713
G1 X123.261 Y145.439 E382.53822
G1 X149.973 Y118.726 E386.30765
G1 X150.692 Y119.421 E386.40743
G1 X124.675 Y145.439 E390.07878
G1 X126.089 Y145.439 E390.21987
G1 X151.354 Y120.174 E393.78503
G1 X151.974 Y120.968 E393.88555
G1 X127.504 Y145.439 E397.3386
G1 X128.918 Y145.439 E397.47969
G1 X152.534 Y121.822 E400.81223
G1 X153.042 Y122.728 E400.91587
G1 X130.332 Y145.439 E404.12057
G1 X131.746 Y145.439 E404.26166
G1 X153.495 Y123.69 E407.33068
G1 X153.886 Y124.713 E407.43996
G1 X133.16 Y145.439 E410.36462
G1 X134.574 Y145.439 E410.50571
G1 X154.205 Y125.808 E413.27585
G1 X154.376 Y126.567 E413.35349
G1 X154.437 Y126.99 E413.39613
G1 X135.988 Y145.439 E415.99948
G1 X137.402 Y145.439 E416.14057
G1 X154.584 Y128.257 E418.56514
G1 X154.624 Y128.81 E418.62046
G1 X154.632 Y129.624 E418.70169
G1 X138.817 Y145.439 E420.93335
G1 X140.231 Y145.439 E421.07444
G1 X154.639 Y131.031 E423.10757
G1 X154.58 Y132.504 E423.25466
